X:1
T:Walking and Talking with Jesus
T:Walking and Talking with Jesus
T:Charles Hutchinson Gabriel
T:William Appel, 1894
T:Public Domain Courtesy of the Cyber Hymnal™
T:Public Domain Courtesy of the Cyber Hymnal™
C:Charles Hutchinson Gabriel
Z:Public Domain
Z:Courtesy of the Cyber Hymnal™
%%score ( 1 2 ) ( 3 4 )
L:1/8
Q:1/4=110
M:6/8
K:D
V:1 treble 
V:2 treble 
V:3 bass 
V:4 bass 
V:1
 [DF]2 [D^E] [DF]2 D | [FA]2 [^E^G] [FA]2 A | [GB]2 [Bd] [Ac]2 [GB] | [FA]6 | %4
w: 1.~When the low- ly|Je- sus trod the|paths of men be-|low,|
w: 2.~You may walk with|Him to- day! Be-|lieve it, wear- y|soul;|
w: 3.~Oh, the joy to|walk with Je- sus|to our home a-|bove,|
 [GB]2 [GB] [DG]2 [GB] | [FA]2 [FA] [DF]2 [DF] | [EG]2 [DF] [CE]2 [^B,^D] | [CE]6 | %8
w: He be- held their|bit- ter sor- row,|and their crush- ing|woe;|
w: He will cause your|heart to burn; His|words will make you|whole;|
w: Bask- ing in the|sun- shine of His|ev- er- last- ing|love;|
 [DF]2 [D^E] [DF]2 D | [FA]2 [E^G] [FA]2 A | [GB]2 [GB] [GB]2 [Ed] | [Ec]6 | %12
w: He re- ceived them|kind- ly, when they|joined Him on the|way,|
w: With the smile of|His dear face, He’ll|cheer you on the|way;|
w: Oh, the joy to|talk with Je- sus|in the sha- dow-|land,|
 [Dd]2 [DA] [Dc]2 [GB] | [FA]2 [^E^G] [FA]2 [DF] | [CE]2 [CA] [CG]2 [CE] | D6 || %16
w: Gra- cious- ly He|walked and talked with|them from day to|day.|
w: Safe- ly He will|guide and lead you|on from day to|day.|
w: And to feel at|ev- ery turn the|touch of His dear|hand.|
"^Refrain" [DF][DE]D [DF][DE]D | [DA]3 [DA]3 | [Fd]2 [GB] [FA]2 [DF] | [CE]6 | %20
w: ||||
w: Walk- ing and talk- ing with|Je- sus|Smoothes the rug- ged|way.|
w: ||||
 [EG][DF][CE] [EG][DF][CE] | [Ac]3 [GB]3 | [GB]2 [FA] [FA]2 [EG] | [DF]6 | %24
w: ||||
w: Walk- ing and talk- ing with|Je- sus|Brings the light of|day;|
w: ||||
 [FA][EG][DF] [FA][EG][DF] | [Fd]3 [Fd]3 | [Fe]2 [Fd] [Gd]2 [Ac] | [GB]6 | %28
w: ||||
w: Walk- ing and talk- ing with|Je- sus|Fills the heart with|love;|
w: ||||
 [Gc][GB][GA] [GB][FA][^E^G] | [FA]3 [DF]3 | [CE]2 [CA] [CG]2 [CE] | D6 |] %32
w: ||||
w: Walk- ing and talk- ing with|Je- sus|Is like Heav’n a-|bove.|
w: ||||
V:2
 x5 D | x5 A | x6 | x6 | x6 | x6 | x6 | x6 | x5 D | x5 A | x6 | x6 | x6 | x6 | x6 | D6 || %16
 x2 D x D x | x6 | x6 | x6 | x6 | x6 | x6 | x6 | x6 | x6 | x6 | x6 | x6 | x6 | x6 | D6 |] %32
V:3
 [D,A,]2 [D,^G,] [D,A,]2 [D,F,] | [D,D]2 [D,D] [D,D]2 [F,D] | [G,D]2 [G,D] [G,D]2 [G,D] | [D,D]6 | %4
 [G,D]2 [G,D] [G,B,]2 [G,D] | [D,D]2 [D,D] [D,A,]2 [D,A,] | [C,A,]2 [D,A,] [A,,A,]2 [A,,A,] | %7
 [A,,A,]6 | [D,A,]2 [D,^G,] [D,A,]2 [D,F,] | [D,D]2 [D,D] [D,D]2 [F,D] | %10
 [G,D]2 [G,D] [G,D]2 [^G,B,] | A,6 | [F,A,]2 [F,A,] G,2 [G,B,] | [D,D]2 [D,D] [D,D]2 [D,A,] | %14
 [A,,A,]2 [A,,A,] [A,,E,]2 [A,,G,] | [D,F,]6 || [D,A,][D,G,][D,F,] [D,A,][D,G,][D,F,] | %17
 [D,F,]3 [D,F,]3 | [D,A,]2 [D,B,] [D,D]2 [D,A,] | [A,,A,]6 | %20
 [A,,A,][A,,A,][A,,A,] [A,,A,][A,,A,][A,,A,] | [A,,A,]3 [A,,A,]3 | [A,,A,]2 [A,,A,] A,2 [C,A,] | %23
 [D,A,]6 | [D,D][D,D][D,A,] [D,D][D,D][D,A,] | [D,A,]3 [D,A,]3 | [D,A,]2 [D,A,] [F,D]2 [F,D] | %27
 [G,D]6 | A,A,A, [A,C]A,A, | [D,D]3 [D,A,]3 | [A,,A,]2 [A,,A,] [A,,E,]2 [A,,G,] | [D,F,]6 |] %32
V:4
 x6 | x6 | x6 | x6 | x6 | x6 | x6 | x6 | x6 | x6 | x6 | A,6 | x3 G,2 x | x6 | x6 | x6 || x6 | x6 | %18
 x6 | x6 | x6 | x6 | x3 (A,,B,,) x | x6 | x6 | x6 | x6 | x6 | A,A,A, A,A, x | x6 | x6 | x6 |] %32

